images/heart_icon.svg

<svg width="20" height="18" viewBox="0 0 20 18" fill="none" xmlns="http://www.w3.org/2000/svg">
<path d="M18.4537 9.27081C20.5154 7.14636 20.5154 3.69676 18.4537 1.59334C16.3919 -0.531113 13.0441 -0.531113 10.9824 1.59334L9.98214 2.64505L8.98188 1.61437C6.92013 -0.531113 3.57234 -0.531113 1.531 1.59334C0.530748 2.62401 0 3.99124 0 5.44259C0 6.89395 0.551161 8.26117 1.531 9.29185L9.98214 18L18.4537 9.27081ZM1.30646 5.44259C1.30646 4.34882 1.71472 3.33918 2.47002 2.58195C3.24573 1.78265 4.24598 1.383 5.24624 1.383C6.24649 1.383 7.24675 1.78265 8.02246 2.58195L9.98214 4.58019L11.9418 2.56091C13.4728 0.983348 15.9837 0.983348 17.4943 2.56091C18.2291 3.31814 18.6578 4.32778 18.6578 5.42156C18.6578 6.51534 18.2496 7.52498 17.4943 8.28221L9.98214 16.0438L2.47002 8.30324C1.73514 7.52498 1.30646 6.51534 1.30646 5.44259Z" fill="black"/>
</svg>

<svg xmlns="http://www.w3.org/2000/svg" width="20" height="18" fill="none"><path fill="#000" d="M18.454 9.27c2.061-2.124 2.061-5.573 0-7.677a5.176 5.176 0 0 0-7.472 0l-1 1.052-1-1.03C6.92-.532 3.572-.532 1.53 1.592.531 2.624 0 3.991 0 5.443 0 6.894.551 8.26 1.531 9.292L9.982 18l8.472-8.73ZM1.306 5.444c0-1.094.409-2.104 1.164-2.861.776-.8 1.776-1.199 2.776-1.199 1 0 2 .4 2.776 1.199l1.96 1.998 1.96-2.02c1.53-1.577 4.042-1.577 5.552 0a4.088 4.088 0 0 1 1.164 2.862 4.001 4.001 0 0 1-1.164 2.86l-7.512 7.762-7.512-7.74c-.735-.779-1.164-1.789-1.164-2.861Z"/></svg>
